src/pos-icons/flag.svg

<svg height="24" viewBox="0 0 24 24" width="24" xmlns="http://www.w3.org/2000/svg"><path d="m14.4 6-.4-2h-9v17h2v-7h5.6l.4 2h7v-10z"/></svg>

<?xml version="1.0" encoding="UTF-8"?><!DOCTYPE svg PUBLIC "-//W3C//DTD SVG 1.1//EN" "http://www.w3.org/Graphics/SVG/1.1/DTD/svg11.dtd"><svg xmlns="http://www.w3.org/2000/svg" xmlns:xlink="http://www.w3.org/1999/xlink" version="1.1" id="mdi-flag" width="24" height="24" viewBox="0 0 24 24"><path d="M14.4,6L14,4H5V21H7V14H12.6L13,16H20V6H14.4Z" /></svg>
